24x24/apps/deepin-feedback.svg

<svg xmlns="http://www.w3.org/2000/svg" width="24" height="24" version="1.1">
 <path style="opacity:0.2;fill-rule:evenodd" d="M 11.5,21.5 C 17.29915,21.5 22,17.522686 22,11.99975 22,6.477314 17.29915,2.5005001 11.5,2.5000001 5.70085,2.5000001 1,6.477314 1,11.99975 c 0,3.024243 1.4095148,5.585042 3.637051,7.283145 0.1333275,0.101639 -0.1692696,2.091306 -1.0327445,2.749064 -0.212625,0.161768 -0.0756,0.494233 0.19005,0.466396 C 4.810057,22.391879 6.301511,22.010869 7.335593,20.763683 8.612348,21.241099 10.020428,21.5 11.5,21.5 Z"/>
 <path style="fill:#57c93f;fill-rule:evenodd" d="M 11.5,21 C 17.29915,21 22,17.022686 22,11.49975 22,5.977314 17.29915,2.0005001 11.5,2 5.70085,2 1,5.977314 1,11.49975 c 0,3.024243 1.4095148,5.585042 3.637051,7.283145 0.1333275,0.101639 -0.1692696,2.091306 -1.0327445,2.749064 -0.212625,0.161768 -0.0756,0.494233 0.19005,0.466396 C 4.810057,21.891879 6.301511,21.510869 7.335593,20.263683 8.612348,20.741099 10.020428,21 11.5,21 Z"/>
 <rect style="opacity:0.2" width="11" height="1" x="6" y="8.5" rx=".5"/>
 <rect style="fill:#f4f4f7" width="11" height="1" x="6" y="8" rx=".5"/>
 <rect style="opacity:0.2" width="11" height="1" x="6" y="11.5" rx=".5"/>
 <rect style="fill:#f4f4f7" width="11" height="1" x="6" y="11" rx=".5"/>
 <rect style="opacity:0.2" width="11" height="1" x="6" y="14.5" rx=".5"/>
 <rect style="fill:#f4f4f7" width="11" height="1" x="6" y="14" rx=".5"/>
 <path style="opacity:0.2;fill:#f4f4f7;fill-rule:evenodd" d="M 11.5,2 C 5.70085,2 1,5.977564 1,11.5 1,11.57988 1.00488,11.658081 1.00684,11.737305 1.1537799,6.352332 5.7935275,2.5 11.5,2.5 17.210948,2.5004925 21.853165,6.3584115 21.993164,11.75 21.995334,11.666566 22,11.584161 22,11.5 22,5.977564 17.29915,2.0005001 11.5,2 Z M 4.6347655,19.28125 c -0.092787,0.657763 -0.417966,1.784548 -1.0302733,2.250977 -0.1737216,0.13217 -0.1119961,0.374856 0.060547,0.445312 0.8155951,-0.703411 1.1017415,-2.595186 0.97168,-2.694336 -7.5e-4,-5.5e-4 -0.0012,-0.0014 -0.00195,-0.002 z"/>
</svg>

<svg xmlns="http://www.w3.org/2000/svg" width="24" height="24"><path style="opacity:.2;fill-rule:evenodd" d="M11.5 21.5c5.8 0 10.5-3.977 10.5-9.5s-4.7-9.5-10.5-9.5S1 6.477 1 12c0 3.024 1.41 5.585 3.637 7.283.133.102-.17 2.091-1.033 2.749-.212.162-.075.494.19.466 1.016-.106 2.508-.487 3.542-1.734 1.276.477 2.684.736 4.164.736z"/><path style="fill:#57c93f;fill-rule:evenodd" d="M11.5 21c5.8 0 10.5-3.977 10.5-9.5S17.3 2 11.5 2 1 5.977 1 11.5c0 3.024 1.41 5.585 3.637 7.283.133.102-.17 2.091-1.033 2.749-.212.162-.075.494.19.466 1.016-.106 2.508-.487 3.542-1.734C8.612 20.74 10.02 21 11.5 21z"/><rect style="opacity:.2" width="11" height="1" x="6" y="8.5" rx=".5"/><rect style="fill:#f4f4f7" width="11" height="1" x="6" y="8" rx=".5"/><rect style="opacity:.2" width="11" height="1" x="6" y="11.5" rx=".5"/><rect style="fill:#f4f4f7" width="11" height="1" x="6" y="11" rx=".5"/><rect style="opacity:.2" width="11" height="1" x="6" y="14.5" rx=".5"/><rect style="fill:#f4f4f7" width="11" height="1" x="6" y="14" rx=".5"/><path style="opacity:.2;fill:#f4f4f7;fill-rule:evenodd" d="M11.5 2C5.7 2 1 5.978 1 11.5c0 .08.005.158.007.237C1.154 6.352 5.794 2.5 11.5 2.5c5.71 0 10.353 3.858 10.493 9.25.002-.083.007-.166.007-.25C22 5.978 17.3 2 11.5 2zM4.635 19.281c-.093.658-.418 1.785-1.03 2.251-.174.132-.113.375.06.446.816-.704 1.102-2.596.972-2.695l-.002-.002z"/></svg>
